icon-themes/sifr_svg/cmd/lc_definedbname.svg

<svg viewBox="0 0 24 24" xmlns="http://www.w3.org/2000/svg"><path d="m2 2v7 1 12h8v-12h12v-8zm2 2h4v4h-4zm6 0h4v4h-4zm6 0h4v4h-4zm-12 6h4v4h-4zm9 2v10h2v-4l6-2v-1l-6-3zm-9 4h4v4h-4z" fill="#555753"/></svg>

<svg xmlns="http://www.w3.org/2000/svg" viewBox="0 0 24 24">
  <path
     style="fill:#555753"
     d="m 2,2 v 7 1 12 h 8 V 10 H 22 V 2 Z M 4,4 H 8 V 8 H 4 Z m 6,0 h 4 v 4 h -4 z m 6,0 h 4 V 8 H 16 Z M 4,10 h 4 v 4 H 4 Z m 9,2 v 10 h 2 v -4 l 6,-2 v -1 l -6,-3 z m -9,4 h 4 v 4 H 4 Z"
     />
</svg>
